X:6306
T:Gladstone
Z: id:dc-reel-113
M:C
L:1/8
K:A Major
ced|cAdB efga|A2cA BGEd|cAdB efga|ecdB A:|!
efg|afba geag|fdgf eAce|dcBd cBAc|B3c defg|!
aAA2 eAce|a2ga faec|defd ceaf|ecdB A|]!


